!!!COM: Anon.
!!!OCL: Francis James Child
!!!OPR: The English and Scottish Popular Ballads
!!!OVM: Vol. 1
!!!ONB: Ballad No. 12, Tune No. 1
!!!ONM: No. 12
!!!PDT: 1882
!!!YEM: Public domain.
**kern
*M3/4
{8.g
16a
=1
4b
4b
8b
8dd
=2
(8cc
8b)
4a
(8b
8dd)
=3
4ee
4ee
(8dd
8b)
=4
(4b
4a)}
!! Second phrase:
{(8b
8dd)
=5
4.ee
8dd
(8b
8g)
=6
(8d
8e)
4g
(8g
8a)
=7
4b
(8cc
8b)
(8.a
16g)
=8
2g}
!! Third phrase:
{8.g
16a
=9
4b
4b
8b
8dd
=10
(8cc
8b)
4a
8b
8dd
=11
4ee
4dd
(8dd
8b)
=12
(4b
4a)}
!! Fourth phrase:
{(8b
8dd)
=13
4.ee
8dd
8b
8g
=14
4d
4g
(8g
8a)
=15
4b
(8cc
8b)
(8.a
16g)
=16
2g}
====
*-
!!!OCY: Britain; England
!!!PPP: Boston
!!!ODT: <1882
!!!AFR: folk song
!!!AST: monophony
!!!AMT: simple triple
!!!SCA: Child Collection
!!!AIN: vox
!!!EEV: 1.0
!!!RDT: 1987 June
!!!YER: 1994 August 10
!!!VTS: 652652838
